X: 120
T:Jota de Emilio
M:3/4
L:1/8
Q:250
C:Emilio Fernández
R:Jota
K:C
G2{C}G2 | AG EGEG | AG EGEG | cBABAG |AG DFEF |GF DFEF |
GF DFEF | A2{B}AG D2- | D2 B,2C2 |DEDE c2 |"~"D2 cBAG |E2 {F}ED C2-|C2 :
| 
cBAB | A2{B}AG c2- | cG cBAB |A2{B}AG F2- | F2 cBAB | A2{B}AG c2 |"~"D2
B,CDF |
E2{F}ED C2- | C2 |: DEFG | E2{F}ED C"F."G | C2DEFG | F2{G}FE D"F."c| D2
B,2 C2 |DEDE c2| "~"D2 cBAG|
E2{F}ED C"F."G | C2 :||

